app/[lang]/(home)/(new-home)/assets/stacks-appicons/astro.svg

<svg width="16" height="16" viewBox="0 0 16 16" fill="none" xmlns="http://www.w3.org/2000/svg">
<path d="M5.82147 13.6278C5.10113 12.9671 4.89084 11.5788 5.19095 10.573C5.71133 11.2071 6.43236 11.408 7.17921 11.5214C8.33217 11.6964 9.46449 11.6309 10.5355 11.1021C10.658 11.0416 10.7713 10.9611 10.9051 10.8796C11.0057 11.1721 11.0318 11.4675 10.9967 11.7681C10.9114 12.5003 10.5483 13.0658 9.97073 13.4945C9.7398 13.666 9.49543 13.8192 9.25692 13.9809C8.52423 14.4779 8.32599 15.0606 8.60129 15.9082C8.60785 15.9288 8.61372 15.9495 8.62849 15.9999C8.25436 15.8319 7.98113 15.5873 7.77292 15.2656C7.55297 14.9262 7.44833 14.5507 7.44284 14.1444C7.44007 13.9467 7.44007 13.7471 7.41356 13.5523C7.34887 13.077 7.12657 12.8642 6.7077 12.8519C6.27783 12.8393 5.93779 13.106 5.84762 13.526C5.84074 13.5582 5.83076 13.59 5.82078 13.6275L5.82147 13.6278Z" fill="white"/>
<path d="M1.8584 10.4055C1.8584 10.4055 3.99145 9.36277 6.13046 9.36277L7.7432 4.35446C7.80357 4.11225 7.97989 3.94765 8.17888 3.94765C8.37792 3.94765 8.55424 4.11225 8.61461 4.35446L10.2274 9.36277C12.7607 9.36277 14.4994 10.4055 14.4994 10.4055C14.4994 10.4055 10.8763 0.501284 10.8692 0.481412C10.7652 0.18859 10.5897 0 10.353 0H6.00523C5.76855 0 5.60009 0.18859 5.48902 0.481412C5.48119 0.500909 1.8584 10.4055 1.8584 10.4055Z" fill="white"/>
</svg>

<svg xmlns="http://www.w3.org/2000/svg" fill="none" viewBox="0 0 16 16">
  <path
    fill="#fff"
    d="M5.82 13.63c-.72-.66-.93-2.05-.63-3.06.52.64 1.24.84 1.99.95 1.15.18 2.28.11 3.36-.42l.37-.22c.1.3.12.59.09.89-.09.73-.45 1.3-1.03 1.72-.23.18-.47.33-.71.5-.74.49-.93 1.07-.66 1.92l.03.09a1.93 1.93 0 0 1-.86-.73 2.07 2.07 0 0 1-.33-1.13c0-.2 0-.4-.03-.59-.06-.47-.28-.69-.7-.7a.83.83 0 0 0-.86.68l-.03.1ZM1.86 10.4s2.13-1.04 4.27-1.04l1.61-5c.06-.25.24-.41.44-.41s.37.16.43.4l1.62 5.01a9 9 0 0 1 4.27 1.05L10.87.48c-.1-.3-.28-.48-.52-.48H6.01c-.24 0-.41.19-.52.48l-3.63 9.93Z"
  />
</svg>
